X:95
T:The Traveller
M:4/4
L:1/8
S:G
R:Reel
K:G
D | "G"G2BG dGBG | "C"ABcd cBAG | "G"(3Bcd) gd egdB | "D"cBAG FA (3DEF |
"G"G2BG dGBG | "C"ABcd cBAG | "G"(3Bcd gd efdB | "D"cBAF "G"G2 :|
|:d2 | "G"g2dg egdg | g2bg "C"agef | "G"g2dg egdB | "D"cBAG FAD2 |
"G"g2dg egdg | g2bg "C"agef | "G"gfga gfed | "D"(3efg fa "G"g3 :|
